X:1
T: Bay Tree, The 
R: Waltz
r:32 
M:3/4
L:1/8
K:G
|:"G"B2 BB AB | "Bm6"d3 d BA | "C"GA/2G/2 FG Ad | "C/D"BA AA GA |
| "G"B2 BB AB | "Bm6"d3 d BA | "C"GA/2G/2 FG Ad | "D"D3 DGA :|
|: "G"B2 GD GB | "Am"c2 eG ce | "Bm6"d2 FB dg | "C"e2 d-"D"d c2 | 
|"G"B2 GD GB | "Am"c2 eG ce | "Bm6"d2 FB dg | "C"e2 d-"D"d c2 :| 
Z: Mackin
